X:1
T:Th\'ainig an Taoide Isteach (The Tide Came In)
S:Danny O'Donnell
D:On tSean - Am Anall
Z:Juergen.Gier@post.rwth-aachen.de
L:1/8
M:C|
K:GMin
dc|BAGF GABc|d2G2 G2ag|fedc BcdB|(3cdc (3BAG F2dc|\
BAGF GABc|dgf<a g2gf|edcB (3cde dc|B2G2 G2::ga|\
bgdB gdBG|DGBd gdbg|afcA fcAF|CFAc dcBA|\
BAG^F GABc|dgf<a g2gf|edcB (3cde dc|B2G2 G2:|
